static/assets/img/icons/theme/communication/incoming-call.svg

<svg height="24" viewBox="0 0 24 24" width="24" xmlns="http://www.w3.org/2000/svg"><g fill="none" fill-rule="evenodd"><path d="m0 0h24v24h-24z" opacity="0"/><g fill="#000"><path d="m9.8604543 6.01162174c.08028189-.0802819.1854963-.13085055.2983376-.14338848.2744534-.03049482.5216628.16727269.5521577.4417261l.5232037 4.70883414c.0040776.0366976.0040776.0737339 0 .1104315-.0304948.2744534-.2777042.4722209-.5521576.4417261l-4.70883409-.5232038c-.11284133-.0125379-.21805573-.0631066-.29833762-.1433885-.19526215-.1952621-.19526215-.5118446 0-.7071068l1.38570837-1.38570833-1.50146218-1.50146218c-.19526215-.19526214-.19526215-.51184463 0-.70710678l.70710678-.70710678c.19526215-.19526215.51184464-.19526215.70710678 0l1.50146218 1.50146218z" fill-rule="nonzero" opacity=".3"/><path d="m12.0799676 14.7839934 2.2040258-2.2040258c.6087205-.6087205.7596295-1.5386634.3746408-2.3086407l-.1248803-.2497606c-.3849886-.76997729-.2340797-1.6999202.3746409-2.30864072l2.7328041-2.73280409c.1952621-.19526215.5118446-.19526215.7071067 0 .0380007.03800066.0696265.08187913.0936602.12994659l1.1039757 2.2079514c.8445547 1.68910922.5135037 3.72913702-.8218544 5.06449512l-5.9988255 5.9988255c-1.4535395 1.4535395-3.60356085 1.9610907-5.55368872 1.3110481l-2.41447961-.8048266c-.26197166-.0873239-.40355165-.3704839-.31622777-.6324555.02454641-.0736392.06590083-.1405521.12078826-.1954395l2.65127182-2.6512718c.60872052-.6087206 1.53866343-.7596295 2.30864076-.3746409l.24976054.1248803c.76997732.3849887 1.69992022.2340797 2.30864072-.3746408z"/></g></g></svg>

<svg width="24px" height="24px" viewBox="0 0 24 24" version="1.1" xmlns="http://www.w3.org/2000/svg" xmlns:xlink="http://www.w3.org/1999/xlink">
    <title>Icon For Incoming-call</title>
    <g stroke="none" stroke-width="1" fill="none" fill-rule="evenodd">
        <rect opacity="0" x="0" y="0" width="24" height="24"></rect>
        <path d="M9.8604543,6.01162174 C9.94073619,5.93133984 10.0459506,5.88077119 10.1587919,5.86823326 C10.4332453,5.83773844 10.6804547,6.03550595 10.7109496,6.30995936 L11.2341533,11.0187935 C11.2382309,11.0554911 11.2382309,11.0925274 11.2341533,11.129225 C11.2036585,11.4036784 10.9564491,11.6014459 10.6819957,11.5709511 L5.97316161,11.0477473 C5.86032028,11.0352094 5.75510588,10.9846407 5.67482399,10.9043588 C5.47956184,10.7090967 5.47956184,10.3925142 5.67482399,10.197252 L7.06053236,8.81154367 L5.55907018,7.31008149 C5.36380803,7.11481935 5.36380803,6.79823686 5.55907018,6.60297471 L6.26617696,5.89586793 C6.46143911,5.70060578 6.7780216,5.70060578 6.97328374,5.89586793 L8.47474592,7.39733011 L9.8604543,6.01162174 Z" fill="#000000" fill-rule="nonzero" opacity="0.3"></path>
        <path d="M12.0799676,14.7839934 L14.2839934,12.5799676 C14.8927139,11.9712471 15.0436229,11.0413042 14.6586342,10.2713269 L14.5337539,10.0215663 C14.1487653,9.25158901 14.2996742,8.3216461 14.9083948,7.71292558 L17.6411989,4.98012149 C17.836461,4.78485934 18.1530435,4.78485934 18.3483056,4.98012149 C18.3863063,5.01812215 18.4179321,5.06200062 18.4419658,5.11006808 L19.5459415,7.31801948 C20.3904962,9.0071287 20.0594452,11.0471565 18.7240871,12.3825146 L12.7252616,18.3813401 C11.2717221,19.8348796 9.12170075,20.3424308 7.17157288,19.6923882 L4.75709327,18.8875616 C4.49512161,18.8002377 4.35354162,18.5170777 4.4408655,18.2551061 C4.46541191,18.1814669 4.50676633,18.114554 4.56165376,18.0596666 L7.21292558,15.4083948 C7.8216461,14.7996742 8.75158901,14.6487653 9.52156634,15.0337539 L9.77132688,15.1586342 C10.5413042,15.5436229 11.4712471,15.3927139 12.0799676,14.7839934 Z" fill="#000000"></path>
    </g>
</svg>
